X:1
T:Da canori passaggi
T:Da canori passaggi
T:Domenico Obizzi
T:Madrigal
T:Source : Madrigali et arie a voce sola---Libro I ---Venetia---A.Vincenti---1627. Editor : André Vierendeels (21/02/16).
T:Notes : Original clefs : C1, F4 Editorial accidentals  above the staff Figures above the BC are notated in original print m 14 in S: "re" notated as "mi" in original print
T:©
T:©
T:©
T:©
C:Domenico Obizzi
Z:©
%%score 1 2
L:1/8
Q:1/4=120
M:4/4
K:C
V:1 treble nm="Soprano" snm="S"
V:2 bass nm="BC" snm="BC"
V:1
 z2 GG G2 G>^F | G/D/E/^F/ G/A/B/c/ dc cB/A/ | BBdG E/F/G/A/ B/c/d/G/ | A4 A2 z A | AG ^FE FEFG | %5
w: Da ca- no- ri pas-|sag- * * * * * * * * * * * *|* gi io pas- sai _ _ _ _ _ _ _|spes- so, al|mor- * mo- * rio _ _ _|
 ^F2 E2 DEFD | E4 E2 AB | c/B/c/A/ d/c/B/A/ B3 A | A3 G A4 | A4 G2 F2 | E4 ^F2 F2 | G^F GA BA cB | %12
w: _ de ba- ci'e de so-|spi- ri, e con-|fu- * * * si _ s'u _ dian- co'l|can- to stes-|se, i mag-|gi- ti gl'an-|ne- * li- * tie _ re- *|
 A4 !fermata!G4 | z DGA B2 A2 | BABG A4 | A2 d2 c3 c | B4 AGAB | cBcd ed ec | d4 c2 ce | %19
w: spi- ri.|Co- si ven- tu- a|dop- pia- men- t'es- pres-|so, il no- stro'af-|fet- to in que so-|a- * * * * * vi _|gi- ri, e con|
 d/c/B/c/ d/c/d/B/ c2 BA | B4 B d/c/ B/A/G/F/ | EF GE ^F4 | ^F2 G4 GF | A4 A2 _B2 | _B3 A A2 A2 | %25
w: dop- * * * * * * * pia ar- mo-|ni- a ca- * * * * *|de an ve- * lo-|ci, e so- ste-|nu- te e|lan- gui- de le|
 A4 !fermata!G4 | z2 dB e/d/c/d/ e/d/e/c/ | d2 cB c4 | Bd c/B/A/G/ ^F/G/A/B/ c/B/ A/G/ | %29
w: vo- ci.|E con dop- * * * * * * *|pia ar- mo- ni-|a ca- * * * * de- * * * an _ ve- *|
 A4 A2 d2- | d2 cB A4 | A2 A2 _B3 A | c2 _B2 A4 | G8 |] %34
w: lo- ci, e|_ so- ste- nu-|te en lan gui-|de le vo-|ci.|
V:2
 G,,8 | G,,8 | G,,8 | D,8 | ^C,4 D,4 | D,2 A,,2 B,,4 | A,,4 A,,4 |"^#" A,2 ^F,2 G,2 D,2 | E,4 D,4 | %9
 D,4 B,,4 | C,4 D,4 | E,2 ^F,2 G,2 C,2 | D,4 G,,4 | G,,4 G,2 ^F,2 | G,2 E,2 D,4 | D,4 A,,4 | %16
 E,4 A,2 G,2 | F,2 E,D, C,2 E,2 | F,2 G,2 C,4 | G,4 A,2 ^F,2 | G,4 G,3 B,, | C,2 E,2 D,4 | %22
 D,2 B,,2 C,2 E,2 | D,4 D,4 | C,4 D,2 ^C,2 | D,4 G,,4 | G,4 C4 | B,4 A,4 | G,4 G,2 E,2 | %29
 D,4 D,2 B,,2 | C,4 D,4 | D,4 D,4 | C,4 D,4 | G,,8 |] %34

